X:1
T:J.P. Sweelinck
T:Il faut que tous mes esprits
T:Pseaume 138
%%score [ 1 2 3 4 ]
L:1/8
Q:1/4=60
M:4/2
K:F
V:1 treble nm="cantus"
V:2 treble nm="altus"
V:3 treble-8 nm="tenor"
V:4 bass nm="bassus"
V:1
 F4 A2 B2 c4 f4 x4 | e4 d6 c3 =BBA/B/ |[M:4/2] c2 c2 d2 c2 A4 z2 A2 x2 | B6 A2 G2 F4 E2 | %4
w: Il faut que de tous|mes es- sprits * * * *|* ton los et prix l'ex-|alt' et prix- * *|
 F2 F2 A2 B2 c4 f4 | e4 d6 c3 =BBA/B/ | c8 z8 | c4 d2 c2 A2 A2 f3 e | d2 c2 z2 A2 B2 A2 F2 G2 | %9
w: se: De- vant les grands me|pre- sen- ter, * * * *||pour te chan- ter, j'ay faict em-|pri- se, pour te chan- ter, j'ay|
 A2 G2 F2 ED E2 F4 E2 |[M:3/2] F8 f4 | e8 d4 |[M:3/2] c8 f4 | e8 d4 |[M:4/2] c4 c6 G2 B4 | %15
w: faict em- pri- * * * * *|se, en|ton sainct|templ' ad-|o- re-|ray, ce- le- bre-|
 A2 G2 A2 B2 c8 |[M:4/2] d8 c4 z4 x2 | g6 d2 f4 e2 d2 | e2 f2 g2 fe d2 e2 f4- | f2 e4 dc d8 | %20
w: ray ta re- nom- me-|* e,|ce- le- bre- ray ta|re- nom- me- * * * * *||
 c8 z8 | z16 | z2 F3 F G2 A2 F2 A2 =B2 | c8 z4 c4 | G2 B2 A4 z4 c4 | B2 A2 G4 F4 z4 | %26
w: e,||pour l'a- mour de ta grand' bon-|té et|fe- au- té tant|e- sti- me- e|
 c4 B2 A2 G4 A4 | z4 z2 d2 A2 c2 =B4 | z2 c4 G4 B2 A4 x2 | z4 F4 G6 A2 | B4 c4 z2 d2 c2 B2 | %31
w: tant e- sti- me- e,|et fe- au- té,|et fe- au- té|tant e- sti-|me- e, tant e- sti-|
 A4 G2 g2 f2 e2 defd | ef g3 ^f/e/ f2 g4 z2 G2 | d2 c2 B4 A4 c4- | c2 G4 B4 A4 c4 | %35
w: me- e, tant e- sti- me- * * *|* * * * * * e, tant|e- sti- me- e, et|* fe- au- té tant-|
 B2 A2 G4 F4 E2 F8- | F8 F8 |] x8 |] %38
w: e- sti- me- * * e.|||
V:2
 z2 F2 F2 G2 A4 c8 | B2 A2 G8 x4 |[M:4/2] G4 G2 G2 c2 C2 F6 | E2 D2 CD _E2 C2 C4 A,2 | %4
w: Il faut que de tous|mes e- sprits|ton los et prix l'ex- alt'|et pri- se, l'ex- alt et pri- se:|
 C2 F2 G2 A4 c4- x2 | c4 B2 A2 G4 z2 G2 | A2 G2 EFGE F2 G2 A3 G/F/ | E2 F2 D2 E2 F3 E D2 C2 | %8
w: De- vant les grands me|* pre- sen- ter, pour|te chan- ter, * * * * pour te * *|* chan- ter, j'ay faict em- pri- se,|
 z2 A2 F3 E DE F4 ED | C4 D4 G2 C2 c4 |[M:3/2] A8 c4 | c8 A4 |[M:3/2] A8 A4 | A8 F4 | %14
w: j'ay faict * * * * * *|* em- pri- * *|se, en|ton sainct|templ' ad-|o- re-|
[M:4/2] F4 F2 C2 _E4 D2 C2 | D2 E2 F2 G2 A2 GF G4 |[M:4/2] F8 z4 c6 | G2 B4 A2 G2 A2 B2 c2 | %18
w: ray, ce- le- bre- ray ta|re- nom- me- * * * * *|e, ce-|le- bre- ray ta re- nom- me-|
 BA G2 A2 B2 AG F2 G2 x2 | A2 =B2 c6 BA B4 | c4 A6 A2 G4 | F2 A2 F2 E2 D4 D2 D2 | %22
w: ||e, pour l'a- mour|de ta grand' bon- té, pour l'a-|
 C4 C2 B,2 A,4 F4 | E8 z4 z2 C2 | C2 D2 F2 c4 B2 A4 | G2 F2 z2 c2 B2 A2 G2 C2 | %26
w: mour de ta grand bon-|té, et|fe- au- té tant e- sti-|me- e tant e- sti- me- e|
 z2 C2 DE F3 E/D/ E2 F2 F2 | C2 _E2 D4 z4 z2 G2 | D2 F2 E4 z4 z2 F2 x2 | _E4 D2 C4 B,2 E2 DC | %30
w: tant e- sti- me- * * * e, et|fe- au- té et|fe- au- té, tant|e- sti- me * * * *|
 DEFD EF G3 ^F/E/ F2 G2 G2 | F2 E2 D4 C2 c2 B2 A2 | GABG AB c3 =B/A/ B2 c4 | z2 C2 D2 E2 F6 C2 | %34
w: * * * * * * * * * * e, tant|e- sti- me- e, tant e- sti-|me- * * * * * * * * * e,|tant e- sti- me- e,|
 _E4 B,4 D4 C4 x2 | z2 F4 E2 D2 C3 B, G,2 x6 | A,4 z2 A,2 B,2 C2 D4 |] C8 |] %38
w: et fe- au- té,|tant e- sti- me- * *|e, tant e- sti- me-|e.|
V:3
 z8 F4 A2 B2 x4 | c4 f4 e4 d4 |[M:4/2][K:treble-8] c2 e2 d2 e2 f2 f2 d2 c2 x2 | %3
w: Il faut que|de tous mes e-|sprits ton los et prix l'ex- alt' et|
 B2 G2 z2 A2 B2 A2 G4 | FGAB c4 z2 F2 A2 B2 | c4 f4 e4 d4 | c4 z4 z2 e2 f2 e2 | %7
w: pri- se, l'ex- alt et pri-|se: * * * * De- vant les|grands me pre- sen-|ter, pour te chan-|
 c4 z2 c2 d2 c2 A2 A2 | f3 e d2 c2 z2 c2 d2 c2 | A4 A2 B4 A2 G4 |[M:3/2] F4 z4 a4 | g8 f4 | %12
w: ter, pour t chan- ter, j'ay|faict em- pri- se, pour te chan-|ter, j'ay faict em- pri-|se, en|ton sainct|
[M:3/2][K:treble-8] e8 d4 | c8 B4 |[M:4/2] A8 z8 | z8 z4 c2 G2 | %16
w: templ' ad-|o- re-|ray,|ce- le-|
[M:4/2][K:treble-8] B4 A2 G2 A2 B2 c2 d2 x2 | e2 dc d8 c4 | z2 d2 e2 f2 g2 fe d2 e2 | %19
w: bre- ray ta re- nom- me- *|* * * * e,|ta re- nom- me- * * * *|
 f2 g2 a2 e2 f2 d2 g2 f2 | e2 de f4 c8 | z4 F6 F2 G4 | A2 F2 A2 B2 c4 c2 d2 | G4 z2 c2 G2 B2 A4 | %24
w: |* * * * e|pour l'a- mour|de ta grand' bon- té, grand' bon-|té, et fe- au- té|
 z4 z2 f2 e2 d2 cdec | de f3 e/d/ e2 f2 F2 G4 | A4 B4 c8 | z2 g4 f4 e2 d4- | %28
w: tant e- sti- me- * * *|* * * * * * e, tant e-|sti- me- e,|tant e- sti- me-|
 d2 c2 z2 c2 c2 d2 f2 c4 | G2 B2 A2 z8 z2 | d2 c2 B2 A4 G4 x2 | z2 A2 =B2 B2 c4 d4 | z4 c4 d4 e4 | %33
w: * e, te fe- au- té, et|fe- au- té|tant e- sti- me- e,|tant e- sti- me- e,|tant e- sti-|
 f4 B4 z2 c2 F2 A2 | G8 F4 F2 A2 x2 | G2 F2 z2 c2 B2 A2 G4 x6 | F4 c4 d2 c2 B4 |] A8 |] %38
w: me- e, et fe- au-|té tant e- sti-|me- e tant e- sti- me-|e, tant e- sti- mé-|e.|
V:4
 z8 z2 F,2 F,2 G,2 x4 | A,4 B,4 C2 C2 G,4 |[M:4/2] z2 C2 =B,2 C2 F,2 A,2 _B,2 A,2 x2 | %3
w: Il faut que|de tous mes e- sprits|ton los et prix l'ex- alt et|
 G,4 F,2 F,2 _E,2 F,2 C,4 | F,8 F,4 F,2 G,2 | A,4 B,4 C2 C2 G,4 | z4 C4 D2 C2 A,4 | %7
w: pri- se, l'ex- alt' et pri-|se: De- vant les|grands me pre- sen- ter,|pour te chan- ter,|
 z2 A,2 B,2 A,2 F,8- | F,4 z2 F,2 G,2 F,2 D,2 E,2 | F,2 E,2 D,4 C,8 |[M:3/2] z8 F,4 | C8 D4 | %12
w: pour te chan- ter,|* pour te chan- ter, j'ay|faict em- pri- se,|en|ton sainct|
[M:3/2] A,8 D,4 | A,8 B,4 |[M:4/2] F,6 z2 z8 | z4 F,6 C,2 _E,4 | %16
w: templ' ad-|o- re-|ray,|ce- le- bre-|
[M:4/2] D,2 C,2 D,2 E,2 F,2 G,2 A,2 B,2 x2 | C2 B,A, G,A,B,C D4 A,4 | z16 | z16 | z4 F,6 F,2 E,4 | %21
w: ray ta re- nom- me- * * *|* * * * * * * * e,|||pour l'a- mour|
 D,2 F,2 D,2 C,2 B,,8 | F,8 F,4 F,2 D,2 | C,4 z2 C,2 C,2 D,2 F,4 | z4 F,4 G,4 A,4 | %25
w: de ta grand' bon- té|de ta grand' bon-|té, et fe- au- té|tant e- sti-|
 B,4 C2 C,2 D,4 E,4 | F,4 B,,4 z4 F,4 | F,2 G,2 B,4 z4 G,4 | G,2 A,2 C4 z2 G,2 D,2 F,2 x2 | %29
w: me- e, tant e- sti-|me- e, et|fe- au- té et|fe- au- té, et fe- au-|
 C,4 z2 F,2 _E,2 D,2 C,4 | B,,4 z4 D,4 E,4 | F,4 G,4 A,4 B,4 | C2 B,2 A,4 G,4 z2 C2 | %33
w: té, tant e- sti- me-|e, tant e-|sti- me- e, tant|e- sti- me- e, tant|
 B,2 A,2 G,4 F,4 z2 F,2 | C,4 _E,4 D,4 F,4 x2 | E,2 D,2 C,D,E,C, D,E, F,2 C,4 x6 | %36
w: e- sti- me- e, et|fe- au- te, tant|e- sti- me- * * * * * * e,|
 z4 F,4 B,,2 A,,2 B,,4 |] F,8 |] %38
w: tant e- sti- me-|e.|

